X: 26636
T: Mickey's Son And Daughter
R: barndance
M: 4/4
K: Gmajor
|:Bc|d2 B2 c2 e2|d2 B3z Bc|d2 B2 c2 e2|d2 B3z Bc|
d2 B2 G2 E2|c2 A2 F2 DD|G2 GG GA BA|G4 z2:|
D2|G2 GG AA A2|B2 B3z Bc|d2 d2 c2 B2|A4 z2 G2|
A2 AA BB B2|^c2 ^c3z ^c^c|d2 =c2 A2 F2|D4 z2 Bc|
d2 B2 c2 e2|d2 B3z Bc|d2 B2 c2 e2|d2 B3z Bc|
d2 B2 G2 E2|c2 A2 F2 DD|G2 GG GA BA|G4 z4|

